src/lib/packages/icons/src/assets/line/angles-down-small.svg

<svg width="24" height="24" viewBox="0 0 24 24" fill="none" xmlns="http://www.w3.org/2000/svg">
<path d="M16.5301 12.47C16.8231 12.763 16.8231 13.238 16.5301 13.531L12.5301 17.531C12.3841 17.677 12.192 17.751 12 17.751C11.808 17.751 11.616 17.678 11.47 17.531L7.46999 13.531C7.17699 13.238 7.17699 12.763 7.46999 12.47C7.76299 12.177 8.23803 12.177 8.53103 12.47L12.001 15.94L15.471 12.47C15.763 12.177 16.2371 12.177 16.5301 12.47ZM11.47 11.5301C11.616 11.6761 11.808 11.75 12 11.75C12.192 11.75 12.3841 11.6771 12.5301 11.5301L16.5301 7.53005C16.8231 7.23705 16.8231 6.76202 16.5301 6.46902C16.2371 6.17602 15.762 6.17602 15.469 6.46902L11.999 9.93899L8.52908 6.46902C8.23608 6.17602 7.76104 6.17602 7.46804 6.46902C7.17504 6.76202 7.17504 7.23705 7.46804 7.53005L11.47 11.5301Z" fill="currentColor"/>
</svg>

<svg xmlns="http://www.w3.org/2000/svg" width="24" height="24" fill="none"><path fill="currentColor" d="M16.53 12.47a.75.75 0 0 1 0 1.061l-4 4a.748.748 0 0 1-1.06 0l-4-4a.75.75 0 1 1 1.061-1.061l3.47 3.47 3.47-3.47a.748.748 0 0 1 1.06 0Zm-5.06-.94a.748.748 0 0 0 1.06 0l4-4a.75.75 0 1 0-1.06-1.06L12 9.94 8.53 6.47a.75.75 0 0 0-1.062 1.06l4.002 4Z"/></svg>
